X: 11302
T: WALTZ
%R: waltz
B: W. Hamilton "Universal Tune-Book" Vol. 1 Glasgow 1844 p.130 #2
S: http://imslp.org/wiki/Hamilton's_Universal_Tune-Book_(Various)
Z: 2016 John Chambers <jc:trillian.mit.edu>
M: 3/4
L: 1/8
K: F
% - - - - - - - - - - - - - - - - - - - - - - - - -
AB |\
c3bag | facfaf | egcege | fafcAB |\
c2cbag | facfaf | egcege | f4 H:|
gf |\
egcege | facfaf | egcege | fafcAB |\
c2cbag | facfaf | egcege | "^D.C."f4 |]
% - - - - - - - - - - - - - - - - - - - - - - - - -

%%sep 1 1 500
%%sep 1 1 500

